icons/alert-triangle-17.svg

<svg width="16" height="17" viewBox="0 0 16 17" fill="none" xmlns="http://www.w3.org/2000/svg">
<path fill-rule="evenodd" clip-rule="evenodd" d="M8.16887 3.75285C8.09674 3.6179 7.90327 3.6179 7.83114 3.75286L3.17329 12.4675C3.10512 12.5951 3.19754 12.7493 3.34215 12.7493H12.6578C12.8025 12.7493 12.8949 12.5951 12.8267 12.4675L8.16887 3.75285ZM6.81795 3.21132C7.32287 2.26664 8.67714 2.26664 9.18206 3.21132L13.8399 11.926C14.3171 12.8188 13.6702 13.8981 12.6578 13.8981H3.34215C2.32981 13.8981 1.6829 12.8188 2.1601 11.926L6.81795 3.21132ZM8.76589 10.8346C8.76589 11.2576 8.423 11.6004 8.00001 11.6004C7.57702 11.6004 7.23412 11.2576 7.23412 10.8346C7.23412 10.4116 7.57702 10.0687 8.00001 10.0687C8.423 10.0687 8.76589 10.4116 8.76589 10.8346ZM8.57442 6.81365C8.57442 6.49642 8.31724 6.23924 8.00001 6.23924C7.68277 6.23924 7.42559 6.49642 7.42559 6.81365V8.72837C7.42559 9.04561 7.68277 9.30278 8.00001 9.30278C8.31724 9.30278 8.57442 9.04561 8.57442 8.72837V6.81365Z" fill="#272431"/>
</svg>

<svg xmlns="http://www.w3.org/2000/svg" width="16" height="17" viewBox="0 0 16 17"><path fill-rule="evenodd" d="M8.169 3.753a.191.191 0 00-.338 0l-4.658 8.714a.192.192 0 00.17.282h9.315a.191.191 0 00.169-.282L8.169 3.753zM6.818 3.21a1.34 1.34 0 012.364 0l4.658 8.715a1.34 1.34 0 01-1.182 1.972H3.342a1.34 1.34 0 01-1.182-1.972L6.818 3.21zm1.948 7.624a.766.766 0 11-1.532 0 .766.766 0 011.532 0zm-.192-4.021a.574.574 0 00-1.148 0v1.914a.574.574 0 001.148 0V6.814z"/></svg>
